X:1
T:Trio No. 5, Op. 39
T:Trios Op. 39
T:Trio No. 5
T:from "12 Organ Trios" Op. 39, arr. for Flute, Violin and Cello
T:Josef Renner jun. (1868-1934)
T:Arrangement by Felix Scharpf
T:twoflutes 2019 / Felix Scharpf / https://commons.wikimedia.org/wiki/File:Regensburger_Dom._711_(NBY_420349).jpg
T:twoflutes 2019 / Felix Scharpf / https://commons.wikimedia.org/wiki/File:Regensburger_Dom._711_(NBY_420349).jpg
T:twoflutes 2019 / Felix Scharpf / https://commons.wikimedia.org/wiki/File:Regensburger_Dom._711_(NBY_420349).jpg
C:Josef Renner jun. (1868-1934)
Z:twoflutes 2019 / Felix Scharpf / https://commons.wikimedia.org/wiki/File:Regensburger_Dom._711_(NBY_420349).jpg
%%score [ 1 2 3 ]
L:1/8
Q:3/8=76
M:6/8
K:D
V:1 treble nm="Flute" snm="Fl."
V:2 treble nm="Violin" snm="Vl."
V:3 bass nm="Cello" snm="Vc."
V:1
"^Trio No. V Andante" z!mf! (fe dcd) | (g3 B2 c | d)(d'b fed) | (f e2) (A2 g | f)!mp!(ag fef) | %5
 (d3 g2 f | e3 a2 g | f3)!mf! (d'c'b | g2 ^g ^a2 c' | b3) z3 | z (gf ede) | (d3 ^d3 | e)(bg e^de) | %13
!p!!<(! f6- | (f6 | ^e)!<)!!mf!(^gf e^de) | (f^Ac e3 | ^d)(fe dcd | e)(^GB cBc | d3) z3 | %20
 z!mp!"_cresc." (ba gfg) | f2 (d- def | d)(cB cde | d)(fe d c2- | c)(B^A Bcd- | d)(c^B cde- | %26
 e)(dc def- | f)(ed cBc) | (d3!mf! f3- | f)(ag fef) | (g3 B3) | (g3 c3 | d2)!mp! (c =cBc | %33
 B)(DE FGA |"_rit." _B)[Q:3/8=65]!p!(BA[Q:3/8=55] G[Q:3/8=45]FG | !fermata!F6) |] %36
V:2
 z6 | z!mf! (BA GFG | F2) (D- DEF | D)(CB, CDE | D)!mp!(FE D C2- | C)B,^A, (B,CD- | D)(C=C ^CDE- | %7
 E)(DC FED- | D)(ED CFE | D)(DC B,^A,B,) | (E2 D CB,^A, | B,)!mf!(BA GFA) | (G6 | F)(cB ^A^GA | %14
 B)(dc =c^Ac) | (c3 B3 | ^A)!mp!(cB =A^GA | B)(^DF A3) | (^GBA =G3 | F)(FE DCD) | (G3 B,2 C | %21
 D)(dB FED) | (F E2) (A,2 G | F)(AG FEF) | (D3 G2 F | E3 A2 G) | (F3 ^G3 | G6) | z (FE DCD) | %29
 (=C3!mp! =c3- | c)(BA GFG | E)(cB A^G=G | F6) |!p! (G6 | C6 | !fermata!D6) |] %36
V:3
!mf! (D,3 F,3) | (E,3 A,3) | (B,3 ^G,3) | (A,3 A,,3) | (D,3 F,3) | G,3 (G,,3 | ^G,,3 A,,3 | %7
 ^A,,3 B,,3) | (E,3 F,3) | (B,,3 D,3) | (C,3 F,3) | (G,3 B,3) | (E,3 A,3) | (^A,3 E,3) | %14
 (D,3 ^G,3) | (C,3 C3) | (F,3 F3) | (B,3 B,,3) | (E,3 A,3) | (D,3 F,3) | (E,3 A,3) | (B,3 ^G,3) | %22
 (A,3 A,,3) | (D,3 F,3) | (G,3 G,,3) | (^G,,3 A,,3- | A,,3) A,3- | A,3 A,,3 |!mp! D,6- | D,6- | %30
!>(! D,6- | D,6- | D,6- |!p! D,6-!>)! | D,6- | !fermata!D,6 |] %36

